www/assets/icons/folder_delete.svg

<svg xmlns="http://www.w3.org/2000/svg" width="24" height="24" viewBox="0 0 24 24" fill='currentColor'><path d="M22 8v10c0 1.1-.9 2-2 2H4c-1.1 0-2-.9-2-2l.01-12c0-1.1.89-2 1.99-2h6l2 2h8c1.1 0 2 .9 2 2m-5.5 2V9h-2v1H12v1.5h1v4c0 .83.67 1.5 1.5 1.5h2c.83 0 1.5-.67 1.5-1.5v-4h1V10zm0 5.5h-2v-4h2z"/></svg>

<svg width="24" height="24" viewBox="0 0 24 24" xmlns="http://www.w3.org/2000/svg" fill='currentColor'><path d="M22 8V18C22 19.1 21.1 20 20 20H4C2.9 20 2 19.1 2 18L2.01 6C2.01 4.9 2.9 4 4 4H10L12 6H20C21.1 6 22 6.9 22 8ZM16.5 10V9H14.5V10H12V11.5H13V15.5C13 16.33 13.67 17 14.5 17H16.5C17.33 17 18 16.33 18 15.5V11.5H19V10H16.5ZM16.5 15.5H14.5V11.5H16.5V15.5Z"/></svg>
